X:6274
T:Girls at Martinfield
T:Phil Cunningham's Reel
C:Phil Cunningham
S:Fiddle-L,10/97, Dan Peterson
R:reel
D:Sharon Shannon
Z:id:hn-reel-587
M:C|
K:E
BG|:E2~E2 GEBE|~E2BE eBge|fece B2GB|ceBG AFDF|
E2~E2 GEBE|~E2BE eBge|fece B2GB|1 ceBG E2BG:|2 ceBG E3F||
|:~G3F GBcB|eccB ceBe|cc'c'B c'2 (3c'c'c'|Bc'ef gfgb|
c'e~e2 fece|B2GE FECE|B,E~E2 EGcG|1 BGFG E3F:|2 BGFG E2||
